!!!OTL: 1039. Ein Schleifer. / Jn eigner Melodey.
!!!ODT: 1786
!!!ARE: Europa, Mitteleuropa, Deutschland
!!!SCT: E1039
!!!TXL: @@DE
!!!YEM: Copyright 1995, estate of Helmut Schaffrath.
**kern	**text
*ICvox	*
*M3/8	*
*k[f#]	*
*G:	*
!LO:TX:a:t=Landrisch.	!
!LO:TX:a:t=Auf beſ. Notenbl. gedr. 1786.	!
{8d	Auf
=1	=1
8.g	ei-
16a	-nem
16b	Fu-
16cc	-ße
=2	=2
8a	ʒwei-
8.a}	-mal
{16g	dreh
=3	=3
16gL	ich
16f#J	.
16eL	mich
16dJ	.
(16e	her-
16f#)	.
=4	=4
4g}	-um,
{8d	und
=5	=5
8.g	dre-
16a	-he
16b	ſie
16cc	noch
=6	=6
8a	drei-
8.a}	-mal
{16g	bei
=7	=7
16gL	Pau-
16f#J	.
16eL	-ſen
16dJ	.
(16e	erſt
16f#)	her-
=8	=8
4g}	-um.
{8b	Juch,
=9	=9
8.a	Mädchen,
16g	.
16f#	jetʒt
16g	hin-
=10	=10
4a}	-ab!
{8b	den
=11	=11
8.a	Kreis
16g	da
16f#	auf
16g	und
=12	=12
4a}	ab!
{8g	Auf
=13	=13
8.g	ei-
16b	-nem
16dd	Fu-
16ff#	-ße
=14	=14
8gg	ʒwei-
8.ee}	-mal
{16ee	dreh
=15	=15
16ddL	ich
16eeJ	.
16ddL	mich
16ccJ	.
(16b	her-
16a)	.
=16	=16
4g}	-um.
==	==
!!!AGN: Tanz - Lied, Schleifer
!!!ONB: ESAC (Essen Associative Code) Database: ERK3
!!!AMT: simple triple
!!!AIN: vox
!!!EED: Helmut Schaffrath
!!!EEV: 1.0
!!!GTL: Tanz- und Spiellieder
!!!URL-scan: https://rosdok.uni-rostock.de/mcrviewer/recordIdentifier/rosdok_ppn745177662/iview2/phys_0788.iview2?x=0&y=388.0940883993171&scale=0.6479838709677419&rotation=0&layout=singlePageLayout
!!!ENC: Anna Maria Matuszewska
!!!EEV: 2024/12/23
*-	*-
